X:0213
T:Lass gin ye loe me tell me now.
M:6/8
L:1/8
Q:3/8=120
N:last note of each part printed as A2
I: :: ::
Z:Jack Campin * www.campin.me.uk * 2009
K:A Mixolydian
F2A  A2d|B>dA  B3  |A>Bd    d2e |f2g Ha3 |
F2A  A2d|B>dA  B>dg|f<ag {g}f2e |d<BA A3:|
f>ef g2g|a>ga Tb3  |B2e     e>fg|fed Hd2c|
FGA  A2d|B>dA  B>dg|f<ba    g<fe|dBA  A3:|

